icons-dark/places/16/user-trash-full.svg

<svg version="1.1" viewBox="0 0 16 16" xmlns="http://www.w3.org/2000/svg">
    <style type="text/css" id="current-color-scheme">
        .ColorScheme-Text {
            color:#eff0f1;
        }
    </style>
    <path d="m6 2v1h-4v1h1v10h10v-10h1v-1h-4v-1zm1 1h2v1h-2zm-1 3h1v5h-1zm3 0h1v5h-1z" class="ColorScheme-Text" fill="currentColor"/>
</svg>

<svg xmlns="http://www.w3.org/2000/svg" viewBox="0 0 16 16">
  <defs id="defs3051">
    <style type="text/css" id="current-color-scheme">
      .ColorScheme-Text {
        color:#eff0f1;
      }
      .ColorScheme-NegativeText {
        color:#da4453;
      }
      </style>
  </defs>
  <path
     style="fill:currentColor;fill-opacity:1;stroke:none" 
     class="ColorScheme-NegativeText"
   d="M 6 2 L 6 3 L 2 3 L 2 4 L 3 4 L 3 14 L 4 14 L 13 14 L 13 13 L 13 4 L 14 4 L 14 3 L 10 3 L 10 2 L 6 2 z M 7 3 L 9 3 L 9 4 L 10 4 L 12 4 L 12 13 L 4 13 L 4 4 L 7 4 L 7 3 z M 6 6 L 6 11 L 7 11 L 7 6 L 6 6 z M 9 6 L 9 11 L 10 11 L 10 6 L 9 6 z " />
  />
</svg>
